X:1
T:Title
%%score ( 1 2 ) { 3 | 4 }
L:1/8
Q:1/4=80
M:4/4
K:B
V:1 treble nm="Church Organ, SOPRANO ALTO"
V:2 treble 
V:3 bass nm="Church Organ, TENOR BASS"
V:4 bass 
V:1
 z4 z2 [B,D][CE] | [DF]2 [DF]2 [DF]3 [DF] | [EG]2 [FA]2 [FB]2 Bc | [Fd]2 [FB]2 [Fc]3 [EA] | %4
w: 1.~A *|lone~ in~ some~ se|cure~ re treat,~ The~ *|sky~ o'er shad ows~|
 [DB]6 [DB][FA] | [EG]2 [EG]2 [EB]3 [EG] | [EG]2 [DF]2 [DF]2 [EG]2 | [DF] [DF]3 [CF]2 [EA]2 | %8
w: me;~ All~ *|na ture~ smiles~ so~|soft~ and~ sweet,~ I'm~|think ing,~ Lord,~ of~|
 [DB]6 z2 | [DF] [DF]2 [DF] [DF]2 [FB]2 | [EG]3 [EG] [EB]4 | [EB]2 [EA][EG] [DF]2 [CE][DF] | %12
w: Thee.~||||
 [B,D]6 [B,D][CE] | [DF]2 [DB]2 [Fd]3 [Fc] | [GB]2 [EG]2 [GB]2 [Gc]2 | [Fd]3 [Fd] [Ec]3 [EA] | %16
w: ||||
 [DB]6 z2 |] %17
w: |
V:2
 x8 | x8 | z4 z2 F2 | x8 | x8 | x8 | x8 | x8 | x8 | x8 | x8 | x8 | x8 | x8 | x8 | x8 | x8 |] %17
V:3
 z4 z2 F,2 | B,2 B,2 B,3 B, | B,2 E2 D2 B,A, | B,2 B,2 A,3 C | B,6 B,2 | B,2 B,2 G,3 B, | %6
 B,2 B,2 B,2 B,2 | B, B,3 A,2 F,2 | F,6 z2 | B, B,2 B, B,2 B,2 | B,3 B, G,4 | G,2 B,B, B,2 A,2 | %12
 F,6 F,2 | B,2 B,2 B,3 B, | B,2 B,2 B,2 B,2 | B,3 B, A,3 F, | F,6 z2 |] %17
V:4
 z4 z2 B,,2 | B,,2 B,,2 B,,3 B,, | E,2 C,2 B,,2 E,F, | z2 D,2 F,3 F, | B,,6 B,,D, | %5
 E,2 E,2 E,3 E, | B,,2 B,,2 B,,2 E,2 | F, F,3 F,2 F,,2 | B,,6 z2 | B,, B,,2 B,, B,,2 D,2 | %10
 E,3 E, E,4 | E,2 E,E, F,2 F,,2 | B,,6 B,,2 | B,,2 B,,2 B,,3 D, | E,2 E,2 E,2 E,2 | %15
 F,3 F, F,3 F,, | B,,6 z2 |] %17

